X:479
T:Klarinettpolska
R:Polska
N:Gammelvänster
Z:Håkan Lidén, 2008-09-26
O:Jämtland
D:Grov ([[Grupper/Hoven Droven]])
S:Känd genom [[Grupper/Hoven Droven]]
S:Av Erik Nirsa (Nilsson) I Gräfte
M:9/8
L:1/8
K:Gdor
^f | g2g ^fgf d2A | B2B2AG A3- | A2e cec cec | c2f dfd dfd | d2c2B2- B2G | 
cdc BAG A2^F | G3 G3- G2 :: ^c | d2g g3 g^fg | a2^f d3 d3- | d2g2^fg a2f | dec2=Bc d2c | 
_B2B2AG A3- | A2e cec cec | c2f dfd dfd | d2c2B2- B2G | cdc BAG A2^F | G3 G3- G2 :|
(:musicend:)
%red% Jag föredrar nog nio åttondelar trots allt, ska lägga in en med tre fjärdedelar också... /Håkan
(:music:)
